X:1
T:Die schöne Müllerin (D.795)
T:Der Müller und der Bach
T:Der Müller und der Bach
T:Franz Schubert
T:Die schöne Müllerin (D.795)
T:Wilhelm Müller
T:OpenScore (CC0)
T:OpenScore (CC0)
T:OpenScore (CC0)
C:Franz Schubert
Z:Wilhelm Müller
Z:OpenScore (CC0)
%%score 1 { ( 2 5 ) | ( 3 4 ) }
L:1/8
Q:1/4=40
M:3/8
K:Bb
V:1 treble nm="Singstimme"
V:2 treble nm="Pianoforte"
V:5 treble 
V:3 bass 
V:4 bass 
V:1
"^Mässig" z3 | z3 |"^(Der Müller)" d3/2 d/ c/ B/ | A/d/ A3/2 d/ | ^f>d c/ A/ | B2 z/ B/ | %6
w: ||Wo ein treu- es|Her- * ze in|Lie- * be ver-|geht, da|
 d2 c/ B/ | _A/e/ A3/2 G/ | ^F/=A/d/c/ B/A/ | G2 z/ d/ | d2 e/ f/ | e/d/ c3/2 B/ | A>e d/^c/ | %13
w: wel- ken die|Li- * lien auf|je- * * * dem *|Beet; da|muss in die|Wol- * ken der|Voll- * mond *|
 d2 z/ d/ | d2 c/ B/ | e/c/ _A3/2 A/ | G/=A/ B/A/ B/G/ | d3- | d z3/2 d/ | d2 c/ B/ | %20
w: geh'n, da-|mit sei ne|Thrä- * nen die|Men- * schen * nicht *|seh'n;|_ da|hal- ten die|
 A/d/ A3/2 d/ | ^f>d c/ A/ | B2 z/ d/ | d2 c/ B/ | _A/e/ A3/2 G/ | ^F/=A/d/c/ B/ A/ | G2 z | %27
w: Eng- * lein die|Au- * gen sich|zu und|schluch- zen und|sin- * gen die|See- * * * le zur|Ruh.|
 z2 z/"^(Der Bach)" =B/ ||[K:G] B2 A/ G/ | G/e/ e3/2 e/ | eA ^c/B/ | A2 z/ d/ | =c A3/2 d/ | %33
w: Und|wenn sich die|Lie- * be dem|Schmerz * ent- *|ringt, ein|Stern- lein, ein|
 B/d/ g3/2 e/ | d/^c/ e/d/ c/d/ | B2 z/ d/ | c A3/2 d/ | B/d/ g3/2 G/ | G/B/d3/4e/8d/8 c/ F/ | %39
w: neu- * es, am|Him- * mel * er- *|blinkt, ein|Stern- lein, ein|neu- * es, am|Him- * * * * mel er-|
 G2 z/ d/ | e A3/2 e/ | e/f/ d3/2 d/ | d/^c/ B/A/ B/c/ | ^cd z/ d/ | e A3/2 e/ | g/f/ d3/2 d/ | %46
w: blinkt; da|sprin- gen drei|Ro- * sen halb|roth * und * halb *|weiss, * die|wel- ken nicht|wie- * der, aus|
 d/^c/e/c/ B/A/ | d>e d/ =c/ | B3/2 A/ G | G/e/ e3/2 e/ | e/A/ A ^c/B/ | A2 z/ d/ | =c A3/2 d/ | %53
w: Dor- * * * nen- *|reis; _ und die|En- ge lein|schnei- * den die|Flü- * gel sich *|ab und|geh'n al- le|
 B/d/ g3/2 e/ | d/^c/ e/d/ c/d/ | B2 z/ d/ | c A3/2 d/ | B/d/ g3/2 G/ | G/B/d3/4e/8d/8 c/ F/ | %59
w: Mor- * gen zur|Er- * de * her- *|ab, und|geh'n al- le|Mor- * gen zur|Er- * * * * de her-|
 G2 z | z2 z/"^(Der Müller)" d/ | d3/2 d/ c/ _B/ | A/d/ A3/2 d/ | f>d c/ A/ | _B2 z/ d/ | %65
w: ab.|Ach,|Bäch- lein, lieb- es|Bäch- * lein, du|meinst- * es so|gut, ach,|
 d3/2 d/ c/ _B/ | _e/c/ _A3/2 A/ | (G/=A/_B3/4c/8B/8 A/) G/ | d3- | d2 z/ d/ | =f2 _e/ d/ | %71
w: Bäch- lein, a- ber|weisst * du wie|Lie- * * * * * be|thut?|_ Ach,|un- ten, da|
 _e/d/ c3/2 _B/ | A>_e d/c/ | d2- d/ d/ | d3/2 d/ c/ =B/ | =e/c/ A3/2 G/ | F/A/ d/^c/ e/d/ | %77
w: un- * ten die|küh- * le _|Ruh, _ ach,|Bäch- lein, lieb es|Bäch- * lein, so|sin- * ge * nur *|
 B2 z/ d/ | e3/2 d/ c/ B/ | e/c/ A3/2 G/ | F/A/ d/^c/ e/d/ | G2 z | z3 | z3 | z3 | z3 | z3 | z3 | %88
w: zu, ach,|Bäch- lein, lieb es|Bäch- * lein, so|sin- * ge * nur *|zu!|||||||
 z3 |] %89
w: |
V:2
 z [B,G]2 | z [B,G]2 | z [B,G]2 | z [A,^F]2 | z [A,^F]2 | z [B,G]2 | z [B,G]2 | z [_A,E_A]2 | %8
 z [=A,^F]2 | z [B,G]2 | z!>(! [=B,FG]2!>)! | z [CEG]2 | z [A,EF]2 | z [B,DF]2 | z [B,G]2 | %15
 z [CE_A]2 | z [B,=EG]2 | z [A,^F]2 | z [A,^F]2 | z [B,G]2 | z [A,^F]2 | z [A,^F]2 | z [B,G]2 | %23
 z [B,G]2 | z [CE_A]2 | z [=A,^F]2 | z [B,G]2 | z [B,G]2 ||[K:G] (B,/D/G/D/B,/D/) | %29
 (C/E/G/E/C/E/) | (A,/E/A/E/A,/E/) | (A,/F/A/F/A,/F/) | (C/D/A/D/C/D/) | (B,/D/G/D/B,/D/) | %34
 (C/D/F/D/C/D/) | (B,/D/G/D/B,/D/) | (C/D/A/D/C/D/) | B,/D/G/G,/!<(!B,/G/!<)! | %38
!>(! ((([G,B,G]2!>)! [A,CF]))) | B,/D/G/D/B,/G,/ | G,/A,/E/A,/G,/A,/ | F,/A,/D/A,/F,/A,/ | %42
 G,/A,/^C/A,/G,/A,/ | F,/A,/D/A,/F,/A,/ | G,/A,/E/A,/G,/A,/ | F,/A,/D/A,/F,/A,/ | %46
 G,/A,/^C/A,/G,/A,/ | F,/A,/D/A,/F,/A,/ | B,/D/G/D/B,/D/ | C/E/G/E/C/E/ | A,/E/A/E/A,/E/ | %51
 A,/F/A/F/A,/F/ | C/D/A/D/C/D/ | B,/D/G/D/B,/D/ | C/D/F/D/C/D/ | B,/D/G/D/B,/D/ | C/D/A/D/C/D/ | %57
 B,/D/G/G,/B,/G/ | ((([G,B,G]2 [A,CF]))) | B,/D/G/D/B,/D/ | _B,/D/G/D/B,/D/ | _B,/D/G/D/B,/D/ | %62
 A,/D/F/D/A,/D/ | A,/D/F/D/A,/D/ | _B,/D/G/D/B,/D/ | _B,/D/G/D/B,/D/ | C/_E/_A/E/C/E/ | %67
 _B,/=E/G/E/B,/E/ | A,/D/F/D/A,/D/ | A,/D/F/D/A,/D/ | =B,/=F/G/F/B,/F/ | C/_E/G/E/C/E/ | %72
 A,/_E/=F/E/A,/E/ | _B,/D/=F/D/B,/D/ | =B,/D/G/D/B,/D/ | A,/=E/G/E/A,/E/ | A,/C/F/C/A,/C/ | %77
 G,/B,/G/B,/G,/B,/ | G,/D/G/D/G,/D/ | A,/E/G/E/A,/E/ | A,/C/F/C/A,/C/ | B,/D/G/D/B/G/ | %82
!>(! (d/^c/e/d/c/d/)!>)! |!>(! (B,/D/G/D/B/G/)!>)! |!>(! (d/^c/e/d/c/d/)!>)! | (G/D/B/G/D/A/) | %86
 (G/D/B/G/D/A/) | [B,G]3- | [B,G]3 |] %89
V:3
!p! [G,,D,]3 | [G,,D,]3 | [G,,D,]3 | [G,,D,]3 | (E, D,2) | [G,,D,]3 | [G,,D,]3 | [C,,C,]3 | %8
 [D,,D,]3 | [G,,D,]3 | [G,,D,]3 | [C,,C,]3 | F,,3 | B,,3 | [G,,D,]3 | [C,,C,]3 | [^C,,^C,]3 | %17
 [D,,D,]3 | [D,,D,]3 | [G,,D,]3 | [G,,D,]3 | (E, D,2) | [G,,D,]3 | [G,,D,]3 | [C,,C,]3 | [D,,D,]3 | %26
 [G,,D,]3 | [G,,D,]3 ||[K:G] [=F,G,]3 | [E,G,]3 | G,3 | F,3 | (F,D,>F,) | (G,D,>G,) | (A,D,>A,) | %35
 (G,D,>G,) | (F,D,>F,) | (G,G,,3/2) [E,,E,]/ | [D,,D,]3 | [G,,D,]3 | ^C,A,,>C, | D,A,,>D, | %42
 E,A,,>E, | D,A,,>D, | ^C,A,,>C, | D,A,,>D, | E,A,,>E, | D,3 | [=F,G,]3 | [E,G,]3 | G,3 | F,3 | %52
 F,D,>F, | G,D,>G, | A,D,>A, | G,D,>G, | F,D,>F, | G,G,,3/2 [E,,E,]/ | [D,,D,]3 | G,, D,2 | %60
 G,, D,2 | G,, D,2 | G,, D,2 | G,, D,2 | G,, D,2 | G,, D,2 | C,, C,2 | ^C,, ^C,2 | D,, D,2 | %69
 D,, D,2 | G,, D,2 | C,, C,2 | =F,, =F,2 | _B,, =F,2 | =B,,, =B,,2 | C,, C,2 | D,, D,2 | G,, D,2 | %78
 B,,, B,,2 | C,, C,2 | D,, D,2 | [G,,D,]3 | [G,,D,A,]3 | [G,,D,G,]3 | [G,,D,A,]3 | [G,,D,]3 | %86
 [G,,D,]3 | (D,/B,,/G,/D,/E,/D,/4B,,/4) | [G,,,D,,G,,]3 |] %89
V:4
 x3 | x3 | x3 | x3 | G,,3 | x3 | x3 | x3 | x3 | x3 | x3 | x3 | x3 | x3 | x3 | x3 | x3 | x3 | x3 | %19
 x3 | x3 | G,,3 | x3 | x3 | x3 | x3 | x3 | x3 ||[K:G] (D, G,,2) | (G,, C,2) | (^C, A,,2) | %31
 (A,, D,2) | x3 | x3 | x3 | x3 | x3 | x3 | x3 | x3 | x3 | x3 | x3 | x3 | x3 | x3 | x3 | x3 | %48
 (D, G,,2) | (G,, C,2) | (^C, A,,2) | (A,, D,2) | x3 | x3 | x3 | x3 | x3 | x3 | x3 | G,,3 | G,,3 | %61
 G,,3 | G,,3 | G,,3 | G,,3 | G,,3 | C,,3 | ^C,,3 | D,,3 | D,,3 | G,,3 | C,,3 | =F,,3 | _B,,3 | %74
 B,,,3 | C,,3 | D,,3 | G,,3 | B,,,3 | C,,3 | D,,3 | x3 | x3 | x3 | x3 | x3 | x3 | G,,3 | x3 |] %89
V:5
 x3 | x3 | x3 | x3 | x3 | x3 | x3 | x3 | x3 | x3 | x3 | x3 | x3 | x3 | x3 | x3 | x3 | x3 | x3 | %19
 x3 | x3 | x3 | x3 | x3 | x3 | x3 | x3 | x3 ||[K:G] x3 | x3 | x3 | x3 | x3 | x3 | x3 | x3 | x3 | %37
 x2 G, | x3 | x3 | x3 | x3 | x3 | x3 | x3 | x3 | x3 | x3 | x3 | x3 | x3 | x3 | x3 | x3 | x3 | x3 | %56
 x3 | x2 G, | x3 | x3 | x3 | x3 | x3 | x3 | x3 | x3 | x3 | x3 | x3 | x3 | x3 | x3 | x3 | x3 | x3 | %75
 x3 | x3 | x3 | x3 | x3 | x3 | x3 | [CF]3 | x3 | [CF]3 | (B,2 C) | (B,2 C) | x3 | x3 |] %89

